X: 1
T:Molly McGuire's -- Reel
M:2/4
L:1/16
R:reel
B:Ryan's Mammoth Collection
N:48
Z:Contributed by Ray Davies,  ray:davies99.freeserve.co.uk
K:E
vec"^Segno"[|\
B2GB EBGB | EBGB cFFc | B2GB EBGB | Bcef geec |
B2GB EBGB | EBGB cFFc | B2GB EBGB | Bcef gee2 :|
|:Bege bege | [Bb]ege af"tr"Tf2 | Bege bege | Bcef gee2 |
Bege bege | Begb af"tr"Tf2 | gbfg e2ec | Bcef gee2 "^Segno":|
